!!!id: 18xx:2275
!!!COM: Noskowski, Zygmunt
!!!OTL: Romans
!!!PDT:
!!!SMS-siglum: PL-Wtm
!!!SMS-shelfmark: R 32/N
!!!NIFC-rismID: 1001138462
!!!URL-scan: http://repozytorium.nifc.pl/skany/pl-wtm-nut--r32n
!!!ONB-nifc:
!!!SMS-variant: Violino 1o PL-WTM R 32/N:2; Violino 2do PL-WTM R 32/N:8; Viola PL-WTM R 32/N:12; Cello PL-WTM R 32/N:16
!!!SMS-altvar: Violino 1o PL-WTM R 32/N: 4, 6; Violino 2do PL-WTM R 32/N:10; Viola PL-WTM R 32/N:14; Cello PL-WTM R 32/N:18
**kern	**dynam	**kern	**dynam	**kern	**dynam	**kern	**dynam	**kern	**dynam	**kern	**kern	**dynam	**kern	**dynam	**kern	**dynam
*	*	*	*	*	*	*	*	*	*	*group1	*group1	*	*	*	*	*
*part9	*part9	*part8	*part8	*part7	*part7	*part6	*part6	*part5	*part5	*part4	*part3	*part3	*part2	*part2	*part1	*part1
*staff9	*	*staff8	*	*staff7	*	*staff6	*	*staff5	*	*staff4	*staff3	*	*staff2	*	*staff1	*
*	*	*	*	*	*	*	*	*	*	*I""Corni I e 2do in F	*I""Corni I e 2do in F	*	*	*	*	*
*I"Basſo	*	*I"Cello	*	*I"Viola	*	*I"Violino 2do	*	*I"Violino Io	*	*I"[Corno I in F]	*I"[Corno II in F]	*	*I"Clarinetto in A	*	*I"Flauto	*
*I'b	*	*I'vc	*	*I'vla	*	*I'vl 2	*	*I'vl 1	*	*I'cor 2	*I'cor 1	*	*I'cl	*	*I'fl	*
*>[A,B,B]	*>[A,B,B]	*>[A,B,B]	*>[A,B,B]	*>[A,B,B]	*>[A,B,B]	*>[A,B,B]	*>[A,B,B]	*>[A,B,B]	*>[A,B,B]	*>[A,B,B]	*>[A,B,B]	*>[A,B,B]	*>[A,B,B]	*>[A,B,B]	*>[A,B,B]	*>[A,B,B]
*>A	*>A	*>A	*>A	*>A	*>A	*>A	*>A	*>A	*>A	*>A	*>A	*>A	*>A	*>A	*>A	*>A
*clefF4	*	*clefF4	*	*clefC3	*	*clefG2	*	*clefG2	*	*clefG2	*clefG2	*	*clefG2	*	*clefG2	*
*ITrd0c0	*	*	*	*	*	*	*	*	*	*ITrd4c7	*ITrd4c7	*	*ITrd2c3	*	*	*
*k[]	*	*k[]	*	*k[]	*	*k[]	*	*k[]	*	*	*	*	*k[]	*	*k[]	*
*M6/8	*	*M6/8	*	*M6/8	*	*M6/8	*	*M6/8	*	*M6/8	*M6/8	*	*M6/8	*	*M6/8	*
=1	=1	=1	=1	=1	=1	=1	=1	=1	=1	=1	=1	=1	=1	=1	=1	=1
!LO:TX:a:t=Moderato con moto	!	!	!	!	!	!LO:TX:a:t=2	!	!	!	!	!	!	!	!	!LO:TX:a:t=2	!
!LO:TX:a:t=2	!	!LO:TX:a:t=Moderato con moto	!	!LO:TX:a:t=Moderato con moto	!	!LO:TX:a:t=Moderato con moto	!	!LO:TX:a:t=Moderato con moto	!	!	!LO:TX:b:t=2	!	!LO:TX:a:t=2	!	!LO:TX:a:t=Moderato con moto	!
2.r	.	8e\L	mf	8e\L	mf	2.r	.	8ee\L	mf	2.r	2.r	.	2.r	.	2.r	.
.	.	(16A\L	.	(16A\L	.	.	.	(16a\L	.	.	.	.	.	.	.	.
.	.	16B\J	.	16B\J	.	.	.	16b\J	.	.	.	.	.	.	.	.
.	.	8c\J)	.	8c\J)	.	.	.	8cc\J)	.	.	.	.	.	.	.	.
.	.	(16A\LL	.	(16A/LL	.	.	.	(16a/LL	.	.	.	.	.	.	.	.
.	.	16G\J	.	16G/J	.	.	.	16g/J	.	.	.	.	.	.	.	.
.	.	8F\)	.	8F/)	.	.	.	8f/J)	.	.	.	.	.	.	.	.
.	.	(16A\L	.	(16A/L	.	.	.	(16a/LL	.	.	.	.	.	.	.	.
.	.	16B\JJ	.	16B/JJ	.	.	.	16b/JJ	.	.	.	.	.	.	.	.
=2	=2	=2	=2	=2	=2	=2	=2	=2	=2	=2	=2	=2	=2	=2	=2	=2
2.r	.	8c\L)	.	8c/L)	.	2.r	.	8cc\)	.	2.r	2.r	.	2.r	.	2.r	.
.	.	(16A\L	.	(16A/L	.	.	.	(16a/LL	.	.	.	.	.	.	.	.
.	.	16G\	.	16G/	.	.	.	16g/	.	.	.	.	.	.	.	.
.	.	16F\	.	16F/	.	.	.	16f/	.	.	.	.	.	.	.	.
.	.	16G\JJ)	.	16G/JJ)	.	.	.	16g/JJ	.	.	.	.	.	.	.	.
.	.	4.E\	.	4.E/	.	.	.	4.e/)	.	.	.	.	.	.	.	.
!	!	!LO:LB:g=original	!	!LO:LB:g=original	!	!	!	!	!	!	!	!	!	!	!	!
=3!|:	=3!|:	=3!|:	=3!|:	=3!|:	=3!|:	=3!|:	=3!|:	=3!|:	=3!|:	=3!|:	=3!|:	=3!|:	=3!|:	=3!|:	=3!|:	=3!|:
*>B	*>B	*>B	*>B	*>B	*>B	*>B	*>B	*>B	*>B	*>B	*>B	*>B	*>B	*>B	*>B	*>B
!	!	!	!	!	!	!	!	!	!	!	!LO:TX:b:t=6	!	!	!	!LO:TX:a:t=6	!
2.AA/	p	2.AA/	p	8r	p	8r	p	8r	p	2.r	2.r	.	8r	p	2.r	.
.	.	.	.	4A^/	.	[4A/	.	[4c/ [4e	.	.	.	.	(4A/	.	.	.
.	.	.	.	(16G/LL	.	4.A/]	.	4.c/] 4.e]	.	.	.	.	16G/LL	.	.	.
.	.	.	.	16F/JJ	.	.	.	.	.	.	.	.	16F/JJ	.	.	.
.	.	.	.	4E/)	.	.	.	.	.	.	.	.	4E/)	.	.	.
!	!	!	!	!	!	!	!	!LO:LB:g=original	!	!	!	!	!	!	!	!
=4	=4	=4	=4	=4	=4	=4	=4	=4	=4	=4	=4	=4	=4	=4	=4	=4
*rep	*	*rep	*	*rep	*	*rep	*	*	*	*	*	*	*rep	*	*	*
2.AA/	.	2.AA/	.	8r	.	8r	.	8r	.	2.r	2.r	.	8r	.	2.r	.
.	.	.	.	4A^/	.	[4A/	.	[4c/ [4e	.	.	.	.	(4A/	.	.	.
.	.	.	.	(16G/LL	.	4.A/]	.	4.c/] 4.e]	.	.	.	.	16G/LL	.	.	.
.	.	.	.	16F/JJ	.	.	.	.	.	.	.	.	16F/JJ	.	.	.
.	.	.	.	4E/)	.	.	.	.	.	.	.	.	4E/)	.	.	.
*Xrep	*	*Xrep	*	*Xrep	*	*Xrep	*	*	*	*	*	*	*Xrep	*	*	*
=5	=5	=5	=5	=5	=5	=5	=5	=5	=5	=5	=5	=5	=5	=5	=5	=5
*rep	*	*rep	*	*rep	*	*	*	*	*	*	*	*	*rep	*	*	*
2.AA/	.	2.AA/	.	8r	.	8r	.	8r	.	2.r	2.r	.	8r	.	2.r	.
.	.	.	.	4A^/	.	(4A/	.	[4c/ [4e	.	.	.	.	(4A/	.	.	.
.	.	.	.	(16G/LL	.	4.G/)	.	4.c/] 4.e]	.	.	.	.	16G/LL	.	.	.
.	.	.	.	16F/JJ	.	.	.	.	.	.	.	.	16F/JJ	.	.	.
.	.	.	.	4E/)	.	.	.	.	.	.	.	.	4E/)	.	.	.
*Xrep	*	*Xrep	*	*Xrep	*	*	*	*	*	*	*	*	*Xrep	*	*	*
=6	=6	=6	=6	=6	=6	=6	=6	=6	=6	=6	=6	=6	=6	=6	=6	=6
*rep	*	*rep	*	*rep	*	*rep	*	*rep	*	*	*	*	*rep	*	*	*
2.AA/	.	2.AA/	.	8r	.	8r	.	8r	.	2.r	2.r	.	8r	.	2.r	.
.	.	.	.	4A^/	.	(4A/	.	[4c/ [4e	.	.	.	.	(4A/	.	.	.
.	.	.	.	(16G/LL	.	4.G/)	.	4.c/] 4.e]	.	.	.	.	16G/LL	.	.	.
.	.	.	.	16F/JJ	.	.	.	.	.	.	.	.	16F/JJ	.	.	.
.	.	.	.	4E/)	.	.	.	.	.	.	.	.	4E/)	.	.	.
*Xrep	*	*Xrep	*	*Xrep	*	*Xrep	*	*Xrep	*	*	*	*	*Xrep	*	*	*
!LO:LB:g=original	!	!	!	!	!	!LO:LB:g=original	!	!	!	!	!	!	!	!	!	!
=7	=7	=7	=7	=7	=7	=7	=7	=7	=7	=7	=7	=7	=7	=7	=7	=7
*	*	*	*	*rep	*	*	*	*	*	*	*	*	*rep	*	*	*
4.AA/	.	4.AA/	.	8r	.	8r	.	8r	.	2.r	2.r	.	8r	.	2.r	.
.	.	.	.	4A^/	.	(4A/	.	[4c/ [4e	.	.	.	.	(4A/	.	.	.
4.C/	.	4.C/	.	(16G/LL	.	4.c/)	.	4.c/] 4.e]	.	.	.	.	16G/LL	.	.	.
.	.	.	.	16F/JJ	.	.	.	.	.	.	.	.	16F/JJ	.	.	.
.	.	.	.	4E/)	.	.	.	.	.	.	.	.	4E/)	.	.	.
*	*	*	*	*Xrep	*	*	*	*	*	*	*	*	*Xrep	*	*	*
!	!	!LO:LB:g=original	!	!LO:LB:g=original	!	!	!	!	!	!	!	!	!LO:LB:g=original	!	!	!
=8	=8	=8	=8	=8	=8	=8	=8	=8	=8	=8	=8	=8	=8	=8	=8	=8
(4BB/	.	(4BB/	.	(4A/	.	(4d#X/	.	(4f#X/	.	2.r	2.r	.	(4A/	.	2.r	.
8E\)	.	8E\)	.	8G#X/)	.	8dn/	.	8e/)	.	.	.	.	8G#/	.	.	.
4.AA/	.	4.AA/	.	(16A/LL	.	4.c/)	.	4.e/	.	.	.	.	16A/LL	.	.	.
.	.	.	.	16F/JJ	.	.	.	.	.	.	.	.	16F/JJ	.	.	.
.	.	.	.	4E/)	.	.	.	.	.	.	.	.	4E/)	.	.	.
!	!	!	!	!	!	!	!	!LO:LB:g=original	!	!	!	!	!	!	!	!
=9	=9	=9	=9	=9	=9	=9	=9	=9	=9	=9	=9	=9	=9	=9	=9	=9
[2.AA/	.	[2.AA/	.	8r	.	8r	.	(8a/L	p	8r	8r	.	8r	.	(8aa\L	p
.	.	.	.	4A/	.	(4c/ [4e	.	8e/	.	[4E/	[4e\	p	(4A/	.	8ee\	.
.	.	.	.	.	.	.	.	8a/J)	.	.	.	.	.	.	8aa\J	.
!	!	!	!	!	!	!	!	!	!	!	!	!	!LO:TX:t=P:problem: przy nucie -	!	!	!
.	.	.	.	(16Gn/LL	.	4.B/) 4.e]	.	4.b\	.	4.E/]	4.e\]	.	16GX/LL	.	4.bb\)	.
.	.	.	.	16F/JJ	.	.	.	.	.	.	.	.	16F/JJ	.	.	.
.	.	.	.	4E/)	.	.	.	.	.	.	.	.	4E/)	.	.	.
=10	=10	=10	=10	=10	=10	=10	=10	=10	=10	=10	=10	=10	=10	=10	=10	=10
4.AA/]	.	4.AA/]	.	8r	.	8r	.	(8cc\L	.	8r	8r	.	8r	.	(8ccc\L	.
.	.	.	.	4A/	.	((4c/ 4e	.	8b\	.	(4A/	(4e/	.	4A/	.	8bb\	.
.	.	.	.	.	.	.	.	8a\J)	.	.	.	.	.	.	8aa\J	.
4.D/	.	4.D\	.	(16A/LL	.	4.d/)) 4.f	.	(4ff\	.	4.F/)	4.d/)	.	(16A/LL	.	4fff\	.
.	.	.	.	16G/JJ	.	.	.	.	.	.	.	.	16G/JJ	.	.	.
.	.	.	.	4F/)	.	.	.	.	.	.	.	.	4F/)	.	.	.
.	.	.	.	.	.	.	.	8ee\)	.	.	.	.	.	.	8eee\)	.
!	!	!	!	!LO:LB:g=original	!	!	!	!	!	!LO:LB:g=original	!LO:LB:g=original	!	!	!	!LO:LB:g=original	!
=11	=11	=11	=11	=11	=11	=11	=11	=11	=11	=11	=11	=11	=11	=11	=11	=11
!	!	!	!	!	!	!	!	!	!	!	!LO:TX:b:t=2	!	!	!	!	!
2.GG/	.	2.GG/	.	8r	.	8r	.	(8dd\L	.	2.r	2.r	.	8r	.	(8ddd\L	.
.	.	.	.	4B/	.	((4d/ 4f	.	8b\	.	.	.	.	(4B/	.	8bb\	.
.	.	.	.	.	.	.	.	8a\J)	.	.	.	.	.	.	8aa\J	.
.	.	.	.	(16c/LL	.	4.c/)) 4.e	.	4.g/	.	.	.	.	16c/LL	.	4.gg\)	.
.	.	.	.	16A/JJ	.	.	.	.	.	.	.	.	16A/JJ	.	.	.
.	.	.	.	4G/)	.	.	.	.	.	.	.	.	4G/)	.	.	.
!LO:LB:g=original	!	!	!	!	!	!LO:LB:g=original	!	!	!	!	!	!	!LO:LB:g=original	!	!	!
=12	=12	=12	=12	=12	=12	=12	=12	=12	=12	=12	=12	=12	=12	=12	=12	=12
4.GG/	.	4.GG/	.	(4c\	.	((4A/ 4f	.	(4a/	.	2.r	2.r	.	(4A/	.	(4aa\	.
.	.	.	.	8d\)	.	8B/)) 8g	.	8b/)	.	.	.	.	8B/	.	8bb\)	.
4.C/	.	4.C/	.	(16c/LL	.	4.c/ 4.e	.	4cc\	.	.	.	.	16c/LL	.	4ccc\	.
.	.	.	.	16A/JJ	.	.	.	.	.	.	.	.	16A/JJ	.	.	.
.	.	.	.	4G/)	.	.	.	.	.	.	.	.	4G/)	.	.	.
.	.	.	.	.	.	.	.	8r	.	.	.	.	.	.	8r	.
!	!	!LO:LB:g=original	!	!	!	!	!	!LO:LB:g=original	!	!	!	!	!	!	!	!
=13	=13	=13	=13	=13	=13	=13	=13	=13	=13	=13	=13	=13	=13	=13	=13	=13
*	*	*	*	*tremolo	*	*	*	*	*	*	*	*	*	*	*	*
!	!	!	!	!LO:TX:t=P:problem:trzy kropki u góry	!	!	!	!	!	!LO:TX:t=P:problem:przy nucie #	!	!	!LO:TX:a:t=1.	!	!LO:TX:a:t=1.	!
8E\	.	8E\	.	8B'\L 8e	.	8B/L 8g	.	8b'/L	.	8BX/	8g\	p	2.r	.	2.r	.
8r	.	8r	.	8B'\ 8e	.	8B/ 8e	.	8a'/	.	8r	8r	.	.	.	.	.
8r	.	8r	.	8B'\J 8e	.	8B/J 8e	.	8g'/J	.	8r	8r	.	.	.	.	.
*	*	*	*	*	*	*tremolo	*	*tremolo	*	*	*	*	*	*	*	*
!	!	!	!	!LO:TX:t=P:problem:trzy kropki u góry	!	!LO:TX:t=P:problem:trzy kropki u dołu	!	!LO:TX:t=P:problem:trzy kropki u dołu	!	!	!	!	!	!	!	!
8r	.	8r	.	8A'\L 8e	.	8e'/L	.	8f#X'/L	.	4r	4r	.	.	.	.	.
8E\L	.	8E\L	.	8A'\ 8e	.	8e'/	.	8f#'/	.	.	.	.	.	.	.	.
8E\J	.	8E\J	.	8A'\J 8e	.	8e'/J	.	8f#'/J	.	8r	8r	.	.	.	.	.
*	*	*	*	*Xtremolo	*	*	*	*Xtremolo	*	*	*	*	*	*	*	*
=14	=14	=14	=14	=14	=14	=14	=14	=14	=14	=14	=14	=14	=14	=14	=14	=14
!	!	!	!	!	!	!	!	!	!	!	!LO:TX:b:t=5	!	!	!	!	!
4E\	.	4E\	.	8A/L	.	8e/L	.	8f#X'/L	.	2.r	2.r	.	(8f#\L	.	(8ff#X\L	.
.	.	.	.	8B/	.	8e/	.	8g'/	.	.	.	.	8g\	.	8gg\	.
8r	.	8r	.	8c/J	.	8e/J	.	8a'/J	.	.	.	.	8a\J	.	8aa\J	.
*	*	*	*	*	*	*Xtremolo	*	*	*	*	*	*	*	*	*	*
8r	.	8r	.	8B/L	.	8e/L	.	8g'/L	.	.	.	.	4b\)	.	4.bb\)	.
8E\L	.	8E\L	.	8B/	.	8e/	.	8g'/	.	.	.	.	.	.	.	.
8E\J	.	8E\J	.	8A/J	.	8d#X/J	.	8f#'/J	.	.	.	.	8r	.	.	.
!LO:LB:g=original	!	!	!	!LO:LB:g=original	!	!	!	!	!	!	!	!	!	!	!LO:LB:g=original	!
=15	=15	=15	=15	=15	=15	=15	=15	=15	=15	=15	=15	=15	=15	=15	=15	=15
!	!	!	!	!	!	!	!	!	!	!	!	!	!LO:TX:a:t=2	!	!LO:TX:a:t=2	!
4.E\	.	4.E\	.	8G/L	.	8e/L	.	8e'/L	.	2.r	2.r	.	2.r	.	2.r	.
.	.	.	.	8B/	.	8e/	.	8g'/	.	.	.	.	.	.	.	.
.	.	.	.	8e/J	.	8g/J	.	8b'/J	.	.	.	.	.	.	.	.
*	*	*	*	*tremolo	*	*tremolo	*	*	*	*	*	*	*	*	*	*
!	!	!	!	!LO:TX:t=P:problem:trzy kropki u góry	!	!	!	!	!	!	!	!	!	!	!	!
4.G\	.	4.G\	.	8B'/L	.	8dn/L	.	8b'/L	.	.	.	.	.	.	.	.
.	.	.	.	8B'/	.	8d/	.	8a'/	.	.	.	.	.	.	.	.
.	.	.	.	8B'/J	.	8d/J	.	8g'/J	.	.	.	.	.	.	.	.
*	*	*	*	*	*	*Xtremolo	*	*	*	*	*	*	*	*	*	*
!	!	!	!	!	!	!LO:LB:g=original	!	!	!	!	!	!	!	!	!	!
=16	=16	=16	=16	=16	=16	=16	=16	=16	=16	=16	=16	=16	=16	=16	=16	=16
2.GG/	.	2.GG/	.	8c/L	.	8e/L	.	8g'/L	.	2.r	2.r	.	2.r	.	2.r	.
.	.	.	.	8c/	.	8e/	.	8g'/	.	.	.	.	.	.	.	.
.	.	.	.	8c/J	.	8d/J	.	8f#X'/J	.	.	.	.	.	.	.	.
*	*	*	*	*	*	*tremolo	*	*tremolo	*	*	*	*	*	*	*	*
.	.	.	.	8B/L	.	8d/L	.	8g'/L	.	.	.	.	.	.	.	.
.	.	.	.	8B/	.	8d/	.	8g'/	.	.	.	.	.	.	.	.
.	.	.	.	8B/J	.	8d/J	.	8g'/J	.	.	.	.	.	.	.	.
!	!	!LO:LB:g=original	!	!	!	!	!	!LO:LB:g=original	!	!	!	!	!LO:LB:g=original	!	!	!
=17	=17	=17	=17	=17	=17	=17	=17	=17	=17	=17	=17	=17	=17	=17	=17	=17
2.BB/	.	2.BB/	.	8B/L	.	8d/L	.	8f#X/L	.	2.r	2.r	.	(8dd\L	.	(8ddd\L	mf
.	.	.	.	8B/	.	8d/	.	8f#/	.	.	.	.	8cc#\	.	8ccc#X\	.
.	.	.	.	8B/J	.	8d/J	.	8f#/J	.	.	.	.	8b\J	.	8bb\J	.
.	.	.	.	8A#X/L	.	8c#X/L	.	8g/L	.	.	.	.	16ee\LL	.	16eee\LL	.
.	.	.	.	.	.	.	.	.	.	.	.	.	16cc#\JJ	.	16ccc#\JJ	.
.	.	.	.	8A#/	.	8c#/	.	8g/	.	.	.	.	4a#X\)	.	4aa#X\)	.
.	.	.	.	8A#/J	.	8c#/J	.	8g/J	.	.	.	.	.	.	.	.
*	*	*	*	*	*	*Xtremolo	*	*Xtremolo	*	*	*	*	*	*	*	*
=18	=18	=18	=18	=18	=18	=18	=18	=18	=18	=18	=18	=18	=18	=18	=18	=18
4.BB/	.	4.BB/	.	8A#X/L	.	8e/L	.	8g'/L	.	2.r	2.r	.	(8cc#\L	.	(8ccc#X\L	.
.	.	.	.	8A#/	.	8d/	.	8f#X'/	.	.	.	.	8dd\	<	8ddd\	<
.	.	.	.	8A#/J	.	8c#X/J	.	8e'/J	.	.	.	.	8ee\J	.	8eee\J)	.
!	!	!	!	!	!	!	!	!LO:TX:t=P:problem:trzy kropki u góry	!	!	!	!	!	!	!	!
*	*	*	*	*	*	*	*	*tremolo	*	*	*	*	*	*	*	*
(4BB/	<	4BB/	<	8B/L	<	8d/L 8f#X	.	8b'\L	<	.	.	.	4.ff#\)	[	4.fff#X\	[
.	.	.	.	8B/	.	8d/ 8f#	<	8b'\	.	.	.	.	.	.	.	.
8D/)	[[	8D/	[	8B/J	[[	8f#/J 8b	[[	8b'\J	[[	.	.	.	.	.	.	.
*	*	*	*	*	*	*	*	*Xtremolo	*	*	*	*	*	*	*	*
!LO:LB:g=original	!	!	!	!	!	!LO:LB:g=original	!	!	!	!	!	!	!	!	!	!
=19	=19	=19	=19	=19	=19	=19	=19	=19	=19	=19	=19	=19	=19	=19	=19	=19
!	!	!	!	!	!	!	!	!	!	!LO:TX:t=P:problem:przy nucie #	!LO:TX:t=P:problem:przy nucie #	!	!	!	!	!
8C#X/L	.	8C#X/L	.	8B/L	mf	8g/L 8b	mf	(8gg\L	mf	4.BX/	(4.bX\	mf	(8gg\L	.	(8ggg\L	.
8D/	.	8D/	.	8B/	.	8f#X/ 8b	.	8ff#X\	.	.	.	.	8ff#\	.	8fff#X\	.
8E/J	.	8E/J	.	8B/J	.	8g/J 8b	.	8ee\J)	.	.	.	.	8ee\J	.	8eee\J	.
*	*	*	*	*Xtremolo	*	*tremolo	*	*	*	*	*	*	*	*	*	*
!	!	!	!	!	!	!	!	!	!	!	!	!	!LO:SIC:v:s=4b\	!	!	!
4.G\	.	4.G\	.	8B/L	.	8e/L 8b	.	(4b\	.	(4B/	4.e\)	.	4g\	.	4bb\	.
.	.	.	.	8B/	.	8e/ 8b	.	.	.	.	.	.	.	.	.	.
.	.	.	.	8c#X/J	.	8e/J 8b	.	8ee\)	.	8c#X/)	.	.	8ee\	.	8eee\	.
*	*	*	*	*	*	*Xtremolo	*	*	*	*	*	*	*	*	*	*
!	!	!	!	!LO:LB:g=original	!	!	!	!	!	!	!	!	!LO:LB:g=original	!	!	!
=20	=20	=20	=20	=20	=20	=20	=20	=20	=20	=20	=20	=20	=20	=20	=20	=20
4.F#X\	.	4.F#X\	.	8d\L 8f#X	.	8d/L 8b	.	(4dd\	.	(4d/	(4f#X\	.	4dd\	.	4ddd\	.
.	.	.	.	8d\ 8f#	.	8d/ 8b	.	.	.	.	.	.	.	.	.	.
.	.	.	.	8c#X\J 8e	.	8e/J 8a#X	.	16cc#X\LL	.	8c#X/	8e\	.	16cc#\LL	.	16ccc#X\LL	>
.	.	.	.	.	.	.	.	16a#X\JJ)	.	.	.	.	16a#X\JJ	.	16aa#X\JJ	.
!	!	!	!	!	!	!	!	!	!	!LO:TX:t=P:problem:przy nucie #	!	!	!	!	!	!
4BB/	.	4BB/ 4F#	.	4B\ 4d	.	8d/L 8b	.	8b\L	>	4BX/)	4d/)	.	4b\)	.	4bb\)	]
.	.	.	.	.	.	8b/	>	8bb\	.	.	.	.	.	.	.	.
8r	.	8r	.	8r	.	8b/J	]]	8bb\J	]]	8r	8r	.	8r	.	8r	.
!	!	!LO:LB:g=original	!	!	!	!	!	!LO:LB:g=original	!	!LO:LB:g=original	!LO:LB:g=original	!	!	!	!LO:LB:g=original	!
=21	=21	=21	=21	=21	=21	=21	=21	=21	=21	=21	=21	=21	=21	=21	=21	=21
*	*	*	*	*	*	*tremolo	*	*tremolo	*	*	*	*	*	*	*	*
!LO:TX:a:t=8	!	!LO:TX:a:t=4	!	!	!	!	!	!	!	!	!LO:TX:b:t=8	!	!	!	!LO:TX:a:t=1.	!
2.r	.	2.r	.	8an\L	mf	8b\L	p	8bb\L	p	2.r	2.r	.	8an/L	p	2.r	.
.	.	.	.	(16d#X\L	.	8b\	.	8bb\	.	.	.	.	(16d#X/L	.	.	.
.	.	.	.	16e\J	.	.	.	.	.	.	.	.	16e/J	.	.	.
.	.	.	.	8f#X\J)	.	8b\J	.	8bb\J	.	.	.	.	8f#/J)	.	.	.
.	.	.	.	(16d#\LL	.	8b\L	.	8bb\L	.	.	.	.	(16d#/LL	.	.	.
!	!	!	!	!	!	!	!	!	!	!	!	!	!LO:TX:t=P:problem:przy nucie -	!	!	!
.	.	.	.	16cn\J	.	.	.	.	.	.	.	.	16cX/J	.	.	.
.	.	.	.	8B\)	.	8b\	.	8bb\	.	.	.	.	8B/)	.	.	.
.	.	.	.	(16d#\L	.	8b\J	.	8bb\J	.	.	.	.	(16d#/L	.	.	.
.	.	.	.	16f#\JJ	.	.	.	.	.	.	.	.	16f#/JJ	.	.	.
!	!	!	!	!	!	!LO:LB:g=original	!	!	!	!	!	!	!LO:LB:g=original	!	!	!
=22	=22	=22	=22	=22	=22	=22	=22	=22	=22	=22	=22	=22	=22	=22	=22	=22
2.r	.	2.r	.	4.a\)	.	8b\L	.	8bb\L	.	2.r	2.r	.	4.a\	.	4r	.
.	.	.	.	.	.	8b\	.	8bb\	.	.	.	.	.	.	.	.
.	.	.	.	.	.	8b\J	.	8bb\J	.	.	.	.	.	.	8r	.
*	*	*	*	*	*	*Xtremolo	*	*Xtremolo	*	*	*	*	*	*	*	*
.	.	.	.	4g#X\	.	8b'\L	.	8bb'\L	.	.	.	.	4g#\)	.	(8bb\L	.
.	.	.	.	.	.	8ccn'\	.	8cccn'\	.	.	.	.	.	.	8cccn\)	.
.	.	.	.	8r	.	8dd'\J	.	8ddd'\J	.	.	.	.	8r	.	8ddd\J	.
!	!	!	!	!LO:LB:g=original	!	!	!	!	!	!	!	!	!	!	!	!
=23	=23	=23	=23	=23	=23	=23	=23	=23	=23	=23	=23	=23	=23	=23	=23	=23
*	*	*	*	*	*	*tremolo	*	*tremolo	*	*	*	*	*	*	*	*
2.r	.	2.r	.	8b\L	.	8dd\L	.	8ddd\L	.	2.r	2.r	.	8b~\L	.	(4.ddd\	.
.	.	.	.	(16g#X\L	.	8dd\	.	8ddd\	.	.	.	.	(16g#\L	.	.	.
.	.	.	.	16a\J	.	.	.	.	.	.	.	.	16a\J	.	.	.
.	.	.	.	8b\J)	.	8dd\J	.	8ddd\J	.	.	.	.	8b\J)	.	.	.
*	*	*	*	*	*	*Xtremolo	*	*Xtremolo	*	*	*	*	*	*	*	*
.	.	.	.	(16g#\LL	.	8dd#X'\L	.	8ddd#X\L	.	.	.	.	(16g#/LL	.	8ddd#X\L	.
.	.	.	.	16fn\J	.	.	.	.	.	.	.	.	16f/J	.	.	.
.	.	.	.	8e\)	.	8ee'\	.	8eee\	.	.	.	.	8e/)	.	8eee\)	.
.	.	.	.	(16g#\L	.	8ee'\J	.	8eee\J	.	.	.	.	(<16g#/L	.	8bb'\J	.
.	.	.	.	16b\JJ	.	.	.	.	.	.	.	.	16b/JJ	.	.	.
=24	=24	=24	=24	=24	=24	=24	=24	=24	=24	=24	=24	=24	=24	=24	=24	=24
*	*	*	*	*	*	*tremolo	*	*tremolo	*	*	*	*	*	*	*	*
2.r	.	2.r	.	8dd\L)	.	8ee\L	.	8eee\L	.	2.r	2.r	.	8dd\L)	.	(4.eee\	.
.	.	.	.	(16b\L	.	8ee\	.	8eee\	.	.	.	.	(16b\L	.	.	.
.	.	.	.	16a\	.	.	.	.	.	.	.	.	16a\	.	.	.
.	.	.	.	16g#X\	.	8ee\J	.	8eee\J	.	.	.	.	16g#\	.	.	.
.	.	.	.	16a\JJ)	.	.	.	.	.	.	.	.	16a\JJ	.	.	.
.	.	.	.	(4g#\	.	8ee\L	.	8eee\L	.	.	.	.	4g#/	.	4bb\)	.
.	.	.	.	.	.	8ee\	.	8eee\	.	.	.	.	.	.	.	.
.	.	.	.	8f\)	.	8ee\J	.	8eee\J	.	.	.	.	8f/	.	8r	.
*	*	*	*	*	*	*Xtremolo	*	*Xtremolo	*	*	*	*	*	*	*	*
!	!	!	!	!	!	!	!	!LO:LB:g=original	!	!	!	!	!	!	!	!
=25	=25	=25	=25	=25	=25	=25	=25	=25	=25	=25	=25	=25	=25	=25	=25	=25
!	!	!	!	!	!	!	!	!	!	!	!	!	!	!	!LO:TX:a:t=2	!
2.r	.	8e\	p	8e\	.	8ee\L	.	8eee\L	.	2.r	2.r	.	8e'/)	.	2.r	.
.	.	4e^\	.	4e^\yy	.	8g#X\ 8b	.	8ee\	.	.	.	.	4e^/	.	.	.
.	.	.	.	.	.	8g#\J 8b	.	8ee\J	.	.	.	.	.	.	.	.
*	*	*	*	*	*	*tremolo	*	*	*	*	*	*	*	*	*	*
.	.	(16f\LL	.	(16f\LL	.	8a/L 8b	.	8dd\L	.	.	.	.	(16f/LL	.	.	.
.	.	16e\JJ	.	16e\JJ	.	.	.	.	.	.	.	.	16e/JJ	.	.	.
.	.	4d\)	.	4d\)	.	8a/ 8b	.	8ff\	.	.	.	.	4d/)	.	.	.
.	.	.	.	.	.	8a/J 8b	.	8ff\J	.	.	.	.	.	.	.	.
*	*	*	*	*	*	*Xtremolo	*	*	*	*	*	*	*	*	*	*
!	!	!	!	!LO:LB:g=original	!	!LO:LB:g=original	!	!	!	!	!	!	!LO:LB:g=original	!	!	!
=26	=26	=26	=26	=26	=26	=26	=26	=26	=26	=26	=26	=26	=26	=26	=26	=26
2.r	.	8e\	.	8e\	.	8g#X/L 8b	.	8ee/L	.	2.r	2.r	.	8e'/	.	2.r	.
.	.	4E^\	.	4E^/	.	8G#X/	.	8B/ 8e	.	.	.	.	4E^/	.	.	.
.	.	.	.	.	.	8G#/J	.	8B/J 8e	.	.	.	.	.	.	.	.
.	.	(16F\LL	.	(16F/LL	.	8A/L	.	8B/L 8d	.	.	.	.	(16F/LL	.	.	.
.	.	16E\JJ	.	16E/JJ	.	.	.	.	.	.	.	.	16E/JJ	.	.	.
.	.	4D\)	.	4D/)	.	8B/	.	8A/ 8f	.	.	.	.	4D/	.	.	.
.	.	.	.	.	.	8B/J	.	8A/J 8f	.	.	.	.	.	.	.	.
=27	=27	=27	=27	=27	=27	=27	=27	=27	=27	=27	=27	=27	=27	=27	=27	=27
2.r	.	4E\	.	4E/	.	8B/L	.	8G#X/ 8e	.	2.r	2.r	.	4E/)	.	4r	.
*	*	*	*	*	*	*	*	*tremolo	*	*	*	*	*	*	*	*
.	.	.	.	.	.	8e/	.	8ee\L	.	.	.	.	.	.	.	.
.	.	8r	.	8r	.	8e/J	.	8ee\J	.	.	.	.	8r	.	8r	.
*	*	*	*	*	*	*tremolo	*	*	*	*	*	*	*	*	*	*
.	.	4r	.	4r	.	8f#X/L	.	8e/L 8ee	.	.	.	.	[4.ee\	p	[4.eee\	p
.	.	.	.	.	.	8f#/	.	8e/ 8ee	.	.	.	.	.	.	.	.
.	.	8r	.	8r	.	8f#/J	.	8e/J 8ee	.	.	.	.	.	.	.	.
!	!	!LO:LB:g=original	!	!	!	!	!	!	!	!	!	!	!	!	!LO:LB:g=original	!
=28	=28	=28	=28	=28	=28	=28	=28	=28	=28	=28	=28	=28	=28	=28	=28	=28
*	*	*	*	*tremolo	*	*	*	*	*	*	*	*	*	*	*	*
!	!	!LO:TX:a:t=1.	!	!	!	!	!	!	!	!	!	!	!	!	!	!
2.r	.	2.r	.	8f#X\L	<	8a/L	< <	8e/L 8dd	<	2.r	2.r	.	4.ee\]	.	4.eee\]	.
.	.	.	.	8f#\	.	8a/	.	8e/ 8dd	.	.	.	.	.	.	.	.
.	.	.	.	8f#\J	.	8a/J	.	8e/J 8dd	.	.	.	.	.	.	.	.
.	.	.	.	8d\L	[ >	8g#X/L	[ [ >	8e/L 8b	[ >	.	.	.	4.ee\	.	4.eee\	.
.	.	.	.	8d\	.	8g#/	.	8e/ 8b	.	.	.	.	.	.	.	.
.	.	.	.	8d\J	]]	8g#/J	]]	8e/J 8b	]]	.	.	.	.	.	.	.
!	!	!	!	!	!	!LO:LB:g=original	!	!LO:LB:g=original	!	!	!	!	!	!	!	!
=29||	=29||	=29||	=29||	=29||	=29||	=29||	=29||	=29||	=29||	=29||	=29||	=29||	=29||	=29||	=29||	=29||
*k[f#c#g#]	*	*k[f#c#g#]	*	*k[f#c#g#]	*	*k[f#c#g#]	*	*k[f#c#g#]	*	*	*	*	*k[f#c#g#]	*	*k[f#c#g#]	*
*	*	*tremolo	*	*	*	*	*	*	*	*	*	*	*	*	*	*
!LO:TX:a:t=3	!	!	!	!	!	!	!	!	!	!	!LO:TX:b:t=4	!	!	!	!	!
2.r	.	8A\L	p	8A\L 8e	p	8a/L	p	8e/L 8cc#	p	2.r	2.r	.	(8cc#\L	p	(8ccc#\L	p
.	.	8A\	.	8A\ 8e	.	8a/	.	8e/ 8cc#	.	.	.	.	8a\	.	8aa\	.
.	.	8A\J	.	8A\J 8e	.	8a/J	.	8e/J 8cc#	.	.	.	.	8b\J	.	8bb\J	.
.	.	8A\L	.	8A\L 8f#	.	8a/L	.	8f#/L 8cc#	.	.	.	.	8cc#\)	.	8ccc#\)	.
.	.	8A\	.	8A\ 8f#	.	8a/	.	8f#/ 8cc#	.	.	.	.	4f#^/	.	4ff#^\	.
.	.	8A\J	.	8A\J 8f#	.	8a/J	.	8f#/J 8cc#	.	.	.	.	.	.	.	.
!	!	!	!	!LO:LB:g=original	!	!	!	!	!	!	!	!	!LO:LB:g=original	!	!	!
=30	=30	=30	=30	=30	=30	=30	=30	=30	=30	=30	=30	=30	=30	=30	=30	=30
*	*	*rep	*	*	*	*	*	*	*	*	*	*	*	*	*	*
2.r	.	8A\L	.	8A\L 8a	.	8d#X/L 8a	.	8d#X/L 8cc#	.	2.r	2.r	.	(8cc#\L	.	(8ccc#\L	.
.	.	8A\	.	8A\ 8a	.	8d#/ 8a	.	8d#/ 8cc#	.	.	.	.	8a\	.	8aa\	.
.	.	8A\J	.	8A\J 8a	.	8d#/J 8a	.	8d#/J 8cc#	.	.	.	.	8b\J	.	8bb\J	.
*	*	*	*	*Xtremolo	*	*Xtremolo	*	*Xtremolo	*	*	*	*	*	*	*	*
.	.	8A\L	.	8A\L 8a	.	8e/L 8a	.	8e/L 8cc#	.	.	.	.	8cc#\L	.	8ccc#\L	.
.	.	8A\	.	8A\ 8a	.	8f#/ 8a	.	8f#/ 8cc#	.	.	.	.	8a\	.	8aa\	.
.	.	8A\J	.	8A\J 8f#	.	8dn/J 8a	.	8dn/J 8cc#	.	.	.	.	8ff#\J)	.	8fff#\J)	.
*	*	*Xrep	*	*	*	*	*	*	*	*	*	*	*	*	*	*
=31	=31	=31	=31	=31	=31	=31	=31	=31	=31	=31	=31	=31	=31	=31	=31	=31
*	*	*rep	*	*tremolo	*	*tremolo	*	*tremolo	*	*	*	*	*	*	*	*
2.r	.	8A\L	.	8A\L 8a	.	8f#/L	.	8d/L 8b	.	2.r	2.r	.	(4b\	.	(4bb\	.
.	.	8A\	.	8A\ 8a	.	8f#/	.	8d/ 8b	.	.	.	.	.	.	.	.
.	.	8A\J	.	8A\J 8a	.	8f#/J	.	8d/J 8b	.	.	.	.	8cc#\	.	8ccc#\	.
.	.	8A\L	.	8A\L 8a	.	8f#/L	.	8d/L 8b	.	.	.	.	8dd\L	.	8ddd\L	.
.	.	8A\	.	8A\ 8a	.	8f#/	.	8d/ 8b	.	.	.	.	8f#\	.	8ff#\	.
.	.	8A\J	.	8A\J 8a	.	8f#/J	.	8d/J 8b	.	.	.	.	8cc#\J	.	8ccc#\J	.
*	*	*Xrep	*	*	*	*	*	*Xtremolo	*	*	*	*	*	*	*	*
!LO:LB:g=original	!	!	!	!	!	!	!	!	!	!	!	!	!	!	!LO:LB:g=original	!
=32	=32	=32	=32	=32	=32	=32	=32	=32	=32	=32	=32	=32	=32	=32	=32	=32
4r	.	8A\L	.	8A\L 8a	.	8d/L 8e	.	8a/L 8b	.	2.r	2.r	.	4.b\	.	4.bb\	.
.	.	8A\	.	8A\ 8g#	.	8d/ 8e	.	8g#/ 8b	.	.	.	.	.	.	.	.
8r	.	8A\J	.	8A\J 8f#	.	8d/J 8e	.	8f#/J 8b	.	.	.	.	.	.	.	.
*	*	*	*	*	*	*	*	*tremolo	*	*	*	*	*	*	*	*
4.A\	p	8AA/L	.	8A\L 8g#	.	8d/L 8e	.	8g#/L 8b	.	.	.	.	4ee\)	.	4eee\)	.
.	.	8AA/	.	8A\ 8g#	.	8d/ 8e	.	8g#/ 8b	.	.	.	.	.	.	.	.
.	.	8AA/J	.	8A\J 8g#	.	8d/J 8e	.	8g#/J 8b	.	.	.	.	8r	.	8r	.
*	*	*Xtremolo	*	*	*	*	*	*Xtremolo	*	*	*	*	*	*	*	*
!	!	!LO:LB:g=original	!	!	!	!LO:LB:g=original	!	!	!	!	!	!	!LO:LB:g=original	!	!	!
=33	=33	=33	=33	=33	=33	=33	=33	=33	=33	=33	=33	=33	=33	=33	=33	=33
!	!LO:HP:b:t=cres	!	!	!	!LO:HP:t=cres	!	!	!	!	!	!	!	!	!	!	!
(4A\	<	(4A\	.	8A\L 8a	<	8c#/L 8e	.	(8cc#\L	.	(2.c#/	(2.a\	mf	(8cc#\L	.	(8ccc#\L	<
.	.	.	.	8A\ 8a	.	8c#/ 8e	.	8dd\	.	.	.	.	8dd\	<	8ddd\	.
!	!	!	!LO:HP:b:t=cres	!	!	!	!	!	!	!	!	!	!	!	!	!
8G#\)	.	8G#\)	<	8A\J 8a	.	8c#/J 8e	.	8ee\J)	.	.	.	.	8ee\J	.	8eee\J)	.
!	!	!	!	!	!	!	!LO:HP:a:t=cres	!	!	!	!	!	!	!	!	!
(4F#\	.	(4F#\	.	8A\L 8a	.	8c#/L	<	4aa\	<	.	.	.	4aa\)	[	4aaa\	[
.	.	.	.	8A\ 8a	.	8c#/	.	.	.	.	.	.	.	.	.	.
8E\)	.	8E\)	.	8A\J 8a	.	8c#/J	.	(8a/	.	.	.	.	(8a\	.	(8aa\	.
=34	=34	=34	=34	=34	=34	=34	=34	=34	=34	=34	=34	=34	=34	=34	=34	=34
(4D/	.	(4D/	.	8A\L 8d	.	8f#/L	.	4ff#\	.	[4.d/	[4.f#X\	.	4ff#\	.	4fff#\	.
.	.	.	.	8A\ 8d	.	8f#/	.	.	.	.	.	.	.	.	.	.
8C#/)	.	8C#/)	.	8A\J 8d	.	8f#/J	.	8ee\)	>	.	.	.	8ee\	.	8eee\	.
*	*	*	*	*	*	*Xtremolo	*	*	*	*	*	*	*	*	*	*
4.BB/	.	4.BB/	>]	8A\L 8d	>	8f#/L	>	8dd/L	.	4d/])	4f#\])	.	4dd\)	.	4ddd\)	.
.	.	.	.	8A\ 8d	.	8f#/	.	8f#/	.	.	.	.	.	.	.	.
.	.	.	.	8A\J 8d	]	8d/J	]]	8f#/J	]]	8r	8r	.	8r	.	8r	.
*	*	*	*	*Xtremolo	*	*	*	*	*	*	*	*	*	*	*	*
!	!	!	!	!LO:LB:g=original	!	!	!	!	!	!	!	!	!	!	!	!
=35	=35	=35	=35	=35	=35	=35	=35	=35	=35	=35	=35	=35	=35	=35	=35	=35
!	!	!	!	!	!	!	!	!	!	!	!LO:TX:b:t=4	!	!LO:TX:a:t=1.	!	!LO:TX:a:t=1.	!
4.BB/	.	4.BB/	.	[4.A/	.	(4.d/	.	(4.fn/	.	2.r	2.r	.	2.r	.	2.r	.
4E\	.	4E\	.	4A/]	.	4c#/)	.	4e/)	.	.	.	.	.	.	.	.
8r	.	8r	.	8r	.	8r	.	8r	.	.	.	.	.	.	.	.
!LO:LB:g=original	!	!LO:LB:g=original	!	!	!	!	!	!	!	!	!	!	!LO:LB:g=original	!	!	!
=36	=36	=36	=36	=36	=36	=36	=36	=36	=36	=36	=36	=36	=36	=36	=36	=36
!LO:TX:a:t=1.	!	!LO:TX:a:t=1.	!	!LO:TX:a:t=1	!	!LO:TX:a:t=1.	!	!LO:TX:a:t=1	!	!	!	!	!	!	!	!
2.r	.	2.r	.	2.r	.	2.r	.	2.r	.	2.r	2.r	.	4r	.	4r	.
.	.	.	.	.	.	.	.	.	.	.	.	.	(8ee\	p	(8eee\	p
.	.	.	.	.	.	.	.	.	.	.	.	.	16cc#\LL	.	16ccc#\LL	.
.	.	.	.	.	.	.	.	.	.	.	.	.	16b\J	.	16bb\J	.
.	.	.	.	.	.	.	.	.	.	.	.	.	8a\)	.	8aa\)	.
.	.	.	.	.	.	.	.	.	.	.	.	.	(16f#\L	.	(16ff#\L	.
.	.	.	.	.	.	.	.	.	.	.	.	.	16g#\JJ	.	16gg#\JJ	.
!	!	!	!	!	!	!LO:LB:g=original	!	!LO:LB:g=original	!	!	!	!	!	!	!	!
=37	=37	=37	=37	=37	=37	=37	=37	=37	=37	=37	=37	=37	=37	=37	=37	=37
4r	.	4r	.	4r	.	4r	.	4r	.	2.r	2.r	.	4e/)	.	4ee\)	.
8r	p	8r	.	8r	p	8r	.	8ee\	p	.	.	.	8r	.	8r	.
4E\	.	4E\	p	4B\ 4d	.	4g#/	p	(16dd\LL	.	.	.	.	4r	.	4r	.
.	.	.	.	.	.	.	.	16cc#\J	.	.	.	.	.	.	.	.
.	.	.	.	.	.	.	.	8b\)	.	.	.	.	.	.	.	.
8r	.	8r	.	8r	.	8r	.	8ee\J	.	.	.	.	8r	.	8r	.
=38	=38	=38	=38	=38	=38	=38	=38	=38	=38	=38	=38	=38	=38	=38	=38	=38
!	!	!	!	!	!	!	!	!	!	!	!	!	!LO:TX:t=P:problem:brak t. 38, dopisek ołówkiem 1.o col Flauto	!	!LO:TX:a:t=1.	!
2.AA/	.	2.AA/	.	2.E/	.	2.c#/	.	(16a/LL	.	2.r	2.r	.	2.ryy	.	2.r	.
.	.	.	.	.	.	.	.	16b/J	.	.	.	.	.	.	.	.
.	.	.	.	.	.	.	.	8cc#/J)	.	.	.	.	.	.	.	.
.	.	.	.	.	.	.	.	(<16a/LL	.	.	.	.	.	.	.	.
.	.	.	.	.	.	.	.	16f#/JJ	.	.	.	.	.	.	.	.
.	.	.	.	.	.	.	.	8e\L)	.	.	.	.	.	.	.	.
.	.	.	.	.	.	.	.	(16a\L	.	.	.	.	.	.	.	.
.	.	.	.	.	.	.	.	16cc#\J	.	.	.	.	.	.	.	.
.	.	.	.	.	.	.	.	8ee\J)	.	.	.	.	.	.	.	.
!	!	!	!	!	!	!	!	!	!	!LO:LB:g=original	!LO:LB:g=original	!	!	!	!	!
=39	=39	=39	=39	=39	=39	=39	=39	=39	=39	=39	=39	=39	=39	=39	=39	=39
*	*	*	*	*	*	*	*	*rep	*	*	*	*	*	*	*	*
[2.AA/	.	[2.AA/	.	[2.E/	.	2.c#/	.	(16a/LL	.	4r	4r	.	4r	.	4r	.
.	.	.	.	.	.	.	.	16b/J	.	.	.	.	.	.	.	.
.	.	.	.	.	.	.	.	8cc#/J)	.	.	.	.	.	.	.	.
.	.	.	.	.	.	.	.	(16a/LL	.	8r	8r	pp	8r	.	8r	.
.	.	.	.	.	.	.	.	16f#/JJ	.	.	.	.	.	.	.	.
.	.	.	.	.	.	.	.	8e\L)	.	[4.E/	[4.c#X/	.	8r	.	8r	.
.	.	.	.	.	.	.	.	(16a\L	.	.	.	.	(16a\LL	p	(16aa\LL	p
.	.	.	.	.	.	.	.	16cc#\J	.	.	.	.	16cc#\J	.	16ccc#\J	.
.	.	.	.	.	.	.	.	8ee\J)	.	.	.	.	8ee\J	.	8eee\J	.
*	*	*	*	*	*	*	*	*Xrep	*	*	*	*	*	*	*	*
!	!	!	!	!	!	!	!	!LO:LB:g=original	!	!	!	!	!	!	!LO:LB:g=original	!
=40	=40	=40	=40	=40	=40	=40	=40	=40	=40	=40	=40	=40	=40	=40	=40	=40
4AA/]	.	4AA/]	.	4E/]	.	4c#/ 4e	.	4aa\	.	4E/]	4c#/]	.	4aa\)	.	4aaa\)	.
8r	.	8r	.	8r	.	8r	.	8r	.	8r	8r	.	8r	.	8r	.
4AA/	.	4AA/	.	4E/	.	4c#/ 4e	.	4a/	.	4E/	4c#X/	.	4a\	.	4aa\	.
8r	.	8r	.	8r	.	8r	.	8r	.	8r	8r	.	8r	.	8r	.
!	!	!LO:LB:g=original	!	!	!	!	!	!	!	!	!	!	!	!	!	!
=41	=41	=41	=41	=41	=41	=41	=41	=41	=41	=41	=41	=41	=41	=41	=41	=41
[4.AA/	.	[4.AA/	.	[4.E/	.	[4.c#/	.	[4.a/	.	[4.E/	[4.c#X/	.	[4.a\	.	[4.aa\	.
4AA/]	.	4AA/]	.	4E/]	.	4c#/]	.	4a/]	.	4E/]	4c#/]	.	4a\]	.	4aa\]	.
8r	.	8r	.	8r	.	8r	.	8r	.	8r	8r	.	8r	.	8r	.
=:|!	=:|!	=:|!	=:|!	=:|!	=:|!	=:|!	=:|!	=:|!	=:|!	=:|!	=:|!	=:|!	=:|!	=:|!	=:|!	=:|!
*-	*-	*-	*-	*-	*-	*-	*-	*-	*-	*-	*-	*-	*-	*-	*-	*-
!!!system-decoration: [(s1,s2)][(s3,s4)][(s5,s6,s7,s8,s9)]
!!!ENC: Marcin Jachim
!!!END: 2021-05-31
!!!RDF**kern: > = above
!!!RDF**kern: < = below
